treebolic-glue-swing/artwork/archive/cancel.svg

<?xml version="1.0" encoding="UTF-8" standalone="no"?>
<!--
  - Copyright (c) 2022. Bernard Bou
  -->

<!-- Created with Inkscape (http://www.inkscape.org/) -->
<svg
   xmlns:dc="http://purl.org/dc/elements/1.1/"
   xmlns:cc="http://creativecommons.org/ns#"
   xmlns:rdf="http://www.w3.org/1999/02/22-rdf-syntax-ns#"
   xmlns:svg="http://www.w3.org/2000/svg"
   xmlns="http://www.w3.org/2000/svg"
   xmlns:xlink="http://www.w3.org/1999/xlink"
   xmlns:sodipodi="http://sodipodi.sourceforge.net/DTD/sodipodi-0.dtd"
   xmlns:inkscape="http://www.inkscape.org/namespaces/inkscape"
   width="48px"
   height="48px"
   id="svg7187"
   sodipodi:version="0.32"
   inkscape:version="0.46"
   sodipodi:docname="drawing.svg"
   inkscape:output_extension="org.inkscape.output.svg.inkscape">
  <defs
     id="defs7189">
    <linearGradient
       inkscape:collect="always"
       id="linearGradient4873">
      <stop
         style="stop-color:#ffffff;stop-opacity:1;"
         offset="0"
         id="stop4875" />
      <stop
         style="stop-color:#ffffff;stop-opacity:0;"
         offset="1"
         id="stop4877" />
    </linearGradient>
    <linearGradient
       inkscape:collect="always"
       xlink:href="#linearGradient4873"
       id="linearGradient2704"
       gradientUnits="userSpaceOnUse"
       gradientTransform="matrix(2.3440063,0,0,2.3440063,-121.79862,31.22942)"
       x1="62.745731"
       y1="-13.444987"
       x2="62.608765"
       y2="7.1072145" />
    <linearGradient
       id="linearGradient3811">
      <stop
         id="stop3813"
         offset="0"
         style="stop-color:#a40000;stop-opacity:1" />
      <stop
         id="stop3815"
         offset="1"
         style="stop-color:#c22f2f;stop-opacity:1" />
    </linearGradient>
    <linearGradient
       inkscape:collect="always"
       xlink:href="#linearGradient3811"
       id="linearGradient3927"
       x1="15.046636"
       y1="44.787998"
       x2="15.046636"
       y2="3.8851264"
       gradientUnits="userSpaceOnUse"
       gradientTransform="matrix(1.0805272,0,0,1.0805026,-1.5082856,-3.3507592)" />
    <linearGradient
       id="linearGradient5106">
      <stop
         style="stop-color:#e78181;stop-opacity:1"
         offset="0"
         id="stop5108" />
      <stop
         id="stop8208"
         offset="0.25288007"
         style="stop-color:#e15f5f;stop-opacity:1" />
      <stop
         style="stop-color:#c22f2f;stop-opacity:1"
         offset="0.68271071"
         id="stop8210" />
      <stop
         style="stop-color:#a40000;stop-opacity:1"
         offset="1"
         id="stop5110" />
    </linearGradient>
    <radialGradient
       inkscape:collect="always"
       xlink:href="#linearGradient5106"
       id="radialGradient2707"
       gradientUnits="userSpaceOnUse"
       gradientTransform="matrix(-7.565785,-6.219707e-7,3.9644633e-7,-4.8230546,494.60904,-26.555114)"
       cx="62.202274"
       cy="-5.7132163"
       fx="62.202274"
       fy="-5.7132163"
       r="9.7552835" />
    <linearGradient
       id="linearGradient10691"
       inkscape:collect="always">
      <stop
         id="stop10693"
         offset="0"
         style="stop-color:#000000;stop-opacity:1;" />
      <stop
         id="stop10695"
         offset="1"
         style="stop-color:#000000;stop-opacity:0;" />
    </linearGradient>
    <radialGradient
       inkscape:collect="always"
       xlink:href="#linearGradient10691"
       id="radialGradient3080"
       gradientUnits="userSpaceOnUse"
       gradientTransform="scale(1.902215,0.525703)"
       cx="6.702713"
       cy="73.615715"
       fx="6.702713"
       fy="73.615715"
       r="7.228416" />
  </defs>
  <sodipodi:namedview
     id="base"
     pagecolor="#ffffff"
     bordercolor="#666666"
     borderopacity="1.0"
     inkscape:pageopacity="0.0"
     inkscape:pageshadow="2"
     inkscape:zoom="7"
     inkscape:cx="24"
     inkscape:cy="24"
     inkscape:current-layer="layer1"
     showgrid="true"
     inkscape:grid-bbox="true"
     inkscape:document-units="px"
     inkscape:window-width="641"
     inkscape:window-height="690"
     inkscape:window-x="1037"
     inkscape:window-y="25" />
  <metadata
     id="metadata7192">
    <rdf:RDF>
      <cc:Work
         rdf:about="">
        <dc:format>image/svg+xml</dc:format>
        <dc:type
           rdf:resource="http://purl.org/dc/dcmitype/StillImage" />
      </cc:Work>
    </rdf:RDF>
  </metadata>
  <g
     id="layer1"
     inkscape:label="Layer 1"
     inkscape:groupmode="layer">
    <path
       transform="matrix(1.6,0,0,1.8421053,3.6,-30.289477)"
       d="M 26.5,38.700001 A 13.75,3.8 0 1 1 -1,38.700001 A 13.75,3.8 0 1 1 26.5,38.700001 z"
       sodipodi:ry="3.8"
       sodipodi:rx="13.75"
       sodipodi:cy="38.700001"
       sodipodi:cx="12.75"
       id="path2625"
       style="opacity:0.5;fill:url(#radialGradient3080);fill-opacity:1;fill-rule:nonzero;stroke:none;stroke-width:0.80000001;stroke-linecap:butt;stroke-linejoin:miter;marker:none;marker-start:none;marker-mid:none;marker-end:none;stroke-miterlimit:4;stroke-dashoffset:0;stroke-opacity:1;visibility:visible;display:inline;overflow:visible"
       sodipodi:type="arc" />
    <path
       style="fill:url(#radialGradient2707);fill-opacity:1;fill-rule:nonzero;stroke:url(#linearGradient3927);stroke-width:1.00004065;stroke-miterlimit:4;stroke-dasharray:none"
       d="M 45.499979,22.999239 C 45.499979,34.87373 35.873401,44.49998 24.000271,44.49998 C 12.126053,44.49998 2.5000203,34.873621 2.5000203,22.999239 C 2.5000203,11.12529 12.126053,1.5000205 24.000271,1.5000205 C 35.873401,1.5000205 45.499979,11.12529 45.499979,22.999239 L 45.499979,22.999239 z"
       id="path6495" />
    <path
       id="path8655"
       d="M 44.49904,22.999272 C 44.49904,34.321462 35.320423,43.499975 23.999791,43.499975 C 12.678124,43.499975 3.500025,34.321356 3.500025,22.999272 C 3.500025,11.677606 12.678124,2.5000255 23.999791,2.5000255 C 35.320423,2.5000255 44.49904,11.677606 44.49904,22.999272 L 44.49904,22.999272 z"
       style="opacity:0.6;fill:none;fill-opacity:1;fill-rule:nonzero;stroke:url(#linearGradient2704);stroke-width:1.00004995;stroke-miterlimit:4;stroke-dasharray:none;stroke-opacity:1" />
    <path
       style="opacity:0.2;fill:#000000;fill-opacity:1;fill-rule:evenodd;stroke:none;stroke-width:1;stroke-linecap:round;stroke-linejoin:round;stroke-miterlimit:4;stroke-dasharray:none;stroke-opacity:1"
       id="path3243"
       d="M 16.471763,11.000001 L 13.000002,14.471762 L 20.162792,21.598007 C 20.382843,21.820831 20.382843,22.17917 20.162792,22.401994 L 13.000002,29.528239 L 16.471763,33 L 23.598007,25.873755 C 23.820831,25.653704 24.179169,25.653704 24.401994,25.873755 L 31.528239,33 L 35,29.528239 L 27.873754,22.401994 C 27.653704,22.17917 27.653704,21.820831 27.873754,21.598007 L 35,14.471762 L 31.528239,11.000001 L 24.401994,18.126247 C 24.179169,18.346297 23.820831,18.346297 23.598007,18.126247 L 16.471763,11.000001 z" />
    <path
       style="fill:#ffffff;fill-opacity:1;fill-rule:evenodd;stroke:none;stroke-width:1;stroke-linecap:round;stroke-linejoin:round;stroke-miterlimit:4;stroke-dasharray:none;stroke-opacity:1"
       id="path3256"
       d="M 16.471763,12 L 13.000002,15.471761 L 20.162794,22.598007 C 20.382843,22.820831 20.382843,23.179169 20.162794,23.401994 L 13.000002,30.528239 L 16.471763,34 L 23.598008,26.873754 C 23.820832,26.653704 24.17917,26.653704 24.401995,26.873754 L 31.528241,34 L 35.000002,30.528239 L 27.873756,23.401994 C 27.653705,23.179169 27.653705,22.820831 27.873756,22.598007 L 35.000002,15.471761 L 31.528241,12 L 24.401995,19.126245 C 24.17917,19.346296 23.820832,19.346296 23.598008,19.126245 L 16.471763,12 z" />
  </g>
</svg>

<svg xmlns="http://www.w3.org/2000/svg" xmlns:xlink="http://www.w3.org/1999/xlink" width="48" height="48"><defs><linearGradient id="a"><stop offset="0" style="stop-color:#fff;stop-opacity:1"/><stop offset="1" style="stop-color:#fff;stop-opacity:0"/></linearGradient><linearGradient xlink:href="#a" id="h" x1="62.746" x2="62.609" y1="-13.445" y2="7.107" gradientTransform="matrix(2.344 0 0 2.344 -121.799 31.23)" gradientUnits="userSpaceOnUse"/><linearGradient id="b"><stop offset="0" style="stop-color:#a40000;stop-opacity:1"/><stop offset="1" style="stop-color:#c22f2f;stop-opacity:1"/></linearGradient><linearGradient xlink:href="#b" id="g" x1="15.047" x2="15.047" y1="44.788" y2="3.885" gradientTransform="matrix(1.08053 0 0 1.0805 -1.508 -3.35)" gradientUnits="userSpaceOnUse"/><linearGradient id="c"><stop offset="0" style="stop-color:#e78181;stop-opacity:1"/><stop offset=".253" style="stop-color:#e15f5f;stop-opacity:1"/><stop offset=".683" style="stop-color:#c22f2f;stop-opacity:1"/><stop offset="1" style="stop-color:#a40000;stop-opacity:1"/></linearGradient><linearGradient id="d"><stop offset="0" style="stop-color:#000;stop-opacity:1"/><stop offset="1" style="stop-color:#000;stop-opacity:0"/></linearGradient><radialGradient xlink:href="#c" id="f" cx="62.202" cy="-5.713" r="9.755" fx="62.202" fy="-5.713" gradientTransform="matrix(-7.56578 0 0 -4.82305 494.609 -26.555)" gradientUnits="userSpaceOnUse"/><radialGradient xlink:href="#d" id="e" cx="6.703" cy="73.616" r="7.228" fx="6.703" fy="73.616" gradientTransform="scale(1.90221 .5257)" gradientUnits="userSpaceOnUse"/></defs><path d="M26.5 38.7a13.75 3.8 0 1 1-27.5 0 13.75 3.8 0 1 1 27.5 0z" style="opacity:.5;fill:url(#e);fill-opacity:1;fill-rule:nonzero;stroke:none;stroke-width:.80000001;stroke-linecap:butt;stroke-linejoin:miter;marker:none;marker-start:none;marker-mid:none;marker-end:none;stroke-miterlimit:4;stroke-dashoffset:0;stroke-opacity:1;visibility:visible;display:inline;overflow:visible" transform="matrix(1.6 0 0 1.8421 3.6 -30.29)"/><path d="M45.5 23c0 11.874-9.627 21.5-21.5 21.5-11.874 0-21.5-9.626-21.5-21.5C2.5 11.124 12.126 1.5 24 1.5c11.873 0 21.5 9.625 21.5 21.5z" style="fill:url(#f);fill-opacity:1;fill-rule:nonzero;stroke:url(#g);stroke-width:1.00004065;stroke-miterlimit:4;stroke-dasharray:none"/><path d="M44.499 23c0 11.321-9.179 20.5-20.5 20.5C12.68 43.5 3.5 34.321 3.5 23 3.5 11.677 12.678 2.5 24 2.5c11.32 0 20.499 9.178 20.499 20.5z" style="opacity:.6;fill:none;fill-opacity:1;fill-rule:nonzero;stroke:url(#h);stroke-width:1.00004995;stroke-miterlimit:4;stroke-dasharray:none;stroke-opacity:1"/><path d="M16.472 11 13 14.472l7.163 7.126c.22.223.22.581 0 .804L13 29.528 16.472 33l7.126-7.126a.572.572 0 0 1 .804 0L31.528 33 35 29.528l-7.126-7.126a.572.572 0 0 1 0-.804L35 14.472 31.528 11l-7.126 7.126a.572.572 0 0 1-.804 0L16.472 11z" style="opacity:.2;fill:#000;fill-opacity:1;fill-rule:evenodd;stroke:none;stroke-width:1;stroke-linecap:round;stroke-linejoin:round;stroke-miterlimit:4;stroke-dasharray:none;stroke-opacity:1"/><path d="M16.472 12 13 15.472l7.163 7.126c.22.223.22.581 0 .804L13 30.528 16.472 34l7.126-7.126a.572.572 0 0 1 .804 0L31.528 34 35 30.528l-7.126-7.126a.572.572 0 0 1 0-.804L35 15.472 31.528 12l-7.126 7.126a.572.572 0 0 1-.804 0L16.472 12z" style="fill:#fff;fill-opacity:1;fill-rule:evenodd;stroke:none;stroke-width:1;stroke-linecap:round;stroke-linejoin:round;stroke-miterlimit:4;stroke-dasharray:none;stroke-opacity:1"/></svg>
